docs/.gitbook/assets/icon-cloud-snow-16@light.svg

<svg width="32" height="32" viewBox="0 0 16 16" fill="none" xmlns="http://www.w3.org/2000/svg">
<rect x="0" y="0" width="16" height="16" fill="#fff"/>
<path fill-rule="evenodd" clip-rule="evenodd" d="M8 2.5C6.10772 2.5 4.56593 4.00193 4.50207 5.87832C4.49096 6.20456 4.27012 6.48615 3.95593 6.57469C3.11516 6.81163 2.5 7.58495 2.5 8.5C2.5 9.30562 2.97635 10.0015 3.66599 10.3185C4.04235 10.4915 4.20721 10.9369 4.03422 11.3132C3.86122 11.6896 3.41588 11.8545 3.03952 11.6815C1.83727 11.1288 1 9.91298 1 8.5C1 7.08481 1.83942 5.86719 3.04653 5.31537C3.38045 2.87766 5.47081 1 8 1C10.5292 1 12.6196 2.87766 12.9535 5.31538C14.1606 5.86719 15 7.08481 15 8.5V9C15 9.41421 14.6642 9.75 14.25 9.75C13.8358 9.75 13.5 9.41421 13.5 9V8.5C13.5 7.58494 12.8848 6.81163 12.0441 6.5747C11.7299 6.48616 11.509 6.20456 11.4979 5.87832C11.4341 4.00193 9.89228 2.5 8 2.5ZM11 9C11.4142 9 11.75 9.33579 11.75 9.75V10.25H12.25C12.6642 10.25 13 10.5858 13 11C13 11.4142 12.6642 11.75 12.25 11.75H11.75V12.25C11.75 12.6642 11.4142 13 11 13C10.5858 13 10.25 12.6642 10.25 12.25V11.75H9.75C9.33579 11.75 9 11.4142 9 11C9 10.5858 9.33579 10.25 9.75 10.25H10.25V9.75C10.25 9.33579 10.5858 9 11 9ZM6 11C6.41421 11 6.75 11.3358 6.75 11.75V12.25H7.25C7.66421 12.25 8 12.5858 8 13C8 13.4142 7.66421 13.75 7.25 13.75H6.75V14.25C6.75 14.6642 6.41421 15 6 15C5.58579 15 5.25 14.6642 5.25 14.25V13.75H4.75C4.33579 13.75 4 13.4142 4 13C4 12.5858 4.33579 12.25 4.75 12.25H5.25V11.75C5.25 11.3358 5.58579 11 6 11Z" fill="#000"/>
</svg>

<svg xmlns="http://www.w3.org/2000/svg" width="32" height="32" fill="none" viewBox="0 0 16 16"><path fill="#fff" d="M0 0h16v16H0z"/><path fill="#000" fill-rule="evenodd" d="M8 2.5a3.5 3.5 0 0 0-3.498 3.378.75.75 0 0 1-.546.697 2.001 2.001 0 0 0-.29 3.744.75.75 0 0 1-.626 1.362 3.5 3.5 0 0 1 .007-6.366 5 5 0 0 1 9.907 0A3.5 3.5 0 0 1 15 8.5V9a.75.75 0 0 1-1.5 0v-.5a2 2 0 0 0-1.456-1.925.75.75 0 0 1-.546-.697A3.5 3.5 0 0 0 8 2.5M11 9a.75.75 0 0 1 .75.75v.5h.5a.75.75 0 0 1 0 1.5h-.5v.5a.75.75 0 0 1-1.5 0v-.5h-.5a.75.75 0 0 1 0-1.5h.5v-.5A.75.75 0 0 1 11 9m-5 2a.75.75 0 0 1 .75.75v.5h.5a.75.75 0 0 1 0 1.5h-.5v.5a.75.75 0 0 1-1.5 0v-.5h-.5a.75.75 0 0 1 0-1.5h.5v-.5A.75.75 0 0 1 6 11" clip-rule="evenodd"/></svg>
